X:1
T:Old Torn Petticoat, The
L:1/8
M:C|
R:Reel
Z:Philippe Varlet  irtrad-l 2001-11-4
K:ADor
B | c2Bc AGEF | G2BG dGBG | c2Bc AGEF | GABG A3 B |
c2Bc AGEF | G2BG dGBG | c2Bc AGEF | GABG A3 :||
A | (3Bcd ef g2eg | aged cAA2 | (3Bcd ef g2ed | eaag a3 a |
bagb agef | gedc BGGB | c2Bc AGEF | GABG A3 :||
